X: 11
T: reel des Colons
T: the Colonials' Reel
R: reel
O: rep. de Bernard Morin
S: handout at Roaring Jelly practice, Jan 2017
Z: 2017 John Chambers <jc:trillian.mit.edu>
M: C|
L: 1/16
K: Emix
|:\
"E"e2{g}fe befe | "D"defg {g}a2fd |\
[1,3 "E"e2{g}fe befe | "Bm"dB{c}BA "D"Bdef :|\
[2,4 {g}fded "Bm"edBc | "D"dBAF GE{F}ED :|
K: Edor
|:::\
"Em"EFGA BE{F}ED | EFGB "D"AD{F}ED |\
"Em"EFGA "(G)"BBGB | "D"AFAd "(Bm)"BE{F}ED :::|

%%sep 1 1 500

